X:2130
L:1/8
M:4/4
K:G
 c |{c} (B2 A).G E/E/E (cA) |{c} (B2 A).G G/G/G (gd) |{c} (B2 A).G E/E/E (cA) | BdAB G2 G :| c | 
 (Bd)de (cd)cA | Bddg (g/f/e/f/) gd | (Bd)de (cd)cA | BdAB G2 Gc | (Bd)de cdcA | 
 Bddg (g/f/e/f/) gd | Bcde cdcA | BdAB G2 G ||

